icons/codescan-checkmark-24.svg

<svg xmlns="http://www.w3.org/2000/svg" width="24" height="24" viewBox="0 0 24 24"><path d="M15.03 8.28a.75.75 0 00-1.06-1.06l-5.22 5.22-2.22-2.22a.75.75 0 10-1.06 1.06l2.75 2.75a.75.75 0 001.06 0l5.75-5.75z"/><path fill-rule="evenodd" d="M0 10.5C0 4.701 4.701 0 10.5 0S21 4.701 21 10.5c0 2.63-.967 5.033-2.564 6.875l4.344 4.345a.75.75 0 11-1.06 1.06l-4.345-4.344A10.459 10.459 0 0110.5 21C4.701 21 0 16.299 0 10.5zm10.5-9a9 9 0 100 18 9 9 0 000-18z"/></svg>

<svg xmlns="http://www.w3.org/2000/svg" width="24" height="24" viewBox="0 0 24 24">
  <defs/>
  <path d="M15.03,8.28 A0.75 0.75 0 0 0 13.97,7.22 L8.75,12.44 L6.53,10.22 A0.75 0.75 0 1 0 5.47,11.28 L8.22,14.03 A0.75 0.75 0 0 0 9.28,14.03 L15.03,8.28 Z"/>
  <path d="M0,10.5 C0,4.701 4.701,0 10.5,0 C16.299,0 21,4.701 21,10.5 C21,13.13 20.033,15.533 18.436,17.375 L22.78,21.72 C22.981,21.907 23.063,22.189 22.995,22.454 C22.928,22.72 22.72,22.928 22.454,22.995 C22.189,23.063 21.907,22.981 21.72,22.78 L17.375,18.436 C15.468,20.093 13.026,21.004 10.5,21 C4.701,21 0,16.299 0,10.5 Z M10.5,1.5 C5.529,1.5 1.5,5.529 1.5,10.5 C1.5,15.471 5.529,19.5 10.5,19.5 C15.471,19.5 19.5,15.471 19.5,10.5 C19.5,5.529 15.471,1.5 10.5,1.5 Z"/>
</svg>
